X:0
T:The Blue Bell of Scotland
G:song
M:2/4
L:1/8
Q:1/4=80
K:D
A|d2cB|A2Bc/d/|FFGE |D3 :|
A|FDFA|d2Bc/d/|cAB^G|A2Bc|
  d2cB|A2Bc/d/|FFGE |D3 |]

Guitarists like this sort of thing because it gives them more chords to try
and lets them use what they already know.  The rest of us can do without it.
One of the few examples of such change of key (again, from D to A) that still
manages to sound like a traditional tune is this:

